X: 2099
T: Çiçekler Derleyeyim
C: Muzaffer İlkar
O: Turkey
F: http://compmusic.upf.edu/node/140
N: hicazkar--sarki--oynak--cicekler_derleyeyim--muzaffer_ilkar
N: makam= hicazkar
N: form= sarki
N: usul= oynak = 9/8
M: 9/8
L: 1/16
K: C _1/4B _7/8e _7/8A ^f
Q: 1/4=186
%%MIDI tuningsystem comma53
G2B2 d2B3GA3/2G/ AFG4 | g2 f2e2 d3c fdec d4  | \
w:  ARANAĞME  |   | 
f2g2 a2g3fe2 {f}edc4 | 
w:   | 
d2 e2ed d3c dccB B4  | e2d2 c2_7/8d2 cBBA AGG4 | 
w:   |   | 
G2 B2d2 B3G A3/2G/AF G4  | g2f2 e2d3cfd ecd4 | \
w:  ARANAĞME  |   | 
f2 g2a2 g3f e2{f}ed c4  | 
w:   | 
d2e2 edd3cdc cBB4 | e2 d2c2 _7/8d2cB BAAG G4  | 
w:   |   | 
g2g2 g2g3fed efg4 | a2 g2f2 e3d cded d4  | \
w:  Çi çek ler  der *  le *  ye *  yim    |  Bir  de met  ey *  le *  ye *  yim    | 
g2g2 g2g3fed efg4 | 
w:  Çi çek ler  der *  le *  ye *  yim    | 
a2 g2f2 e3d cded d4  | _b2b2 b=aag2ffe eda4 | 
w:  Bir  de met  ey *  le *  ye *  yim    |  De me ti  *  ney *  *  le *  ye *  yim    | 
_b2 =a2g2 a2gf feed d4  | f2g2 a2g3ffe edc4 | 
w:  Sen  gü lüm_ ol *  *  ma *  yın *  ca    |  De me ti  ney *  le *  ye *  yim    | 
e2 d2c2 _7/8d2cB BAAG G4  | f2g2 a2g3ffe edc4 | 
w:  Sen  gü lüm_ ol *  *  ma *  yın *  ca    |  De me ti  ney *  le *  ye *  yim    | 
e2 d2c2 _7/8d2cB BAAG G4  | G2B2 d2B3GA3/2G/ AFG4 | 
w:  Sen  gü lüm_ ol *  *  ma *  yın *  ca    |  ARANAĞME  | 
g2 f2e2 d3c fdec d4  | f2g2 a2g3fe2 {f}edc4 | \
w:   |   | 
d2 e2ed d3c dccB B4  | 
w:   | 
e2d2 c2_7/8d2 cBBA AGG4 | G2 B2d2 B3G A3/2G/AF G4  | 
w:   |  ARANAĞME  | 
g2f2 e2d3cfd ecd4 | f2 g2a2 g3f e2{f}ed c4  | \
w:   |   | 
d2e2 edd3cdc cBB4 | 
w:   | 
e2 d2c2 _7/8d2cB BAAG G4  | g2g2 g2g3fed efg4 | 
w:   |  Çi çek ler  der *  le *  ye *  yim    | 
a2 g2f2 e3d cded d4  | g2g2 g2g3fed efg4 | \
w:  Bir  de met  ey *  le *  ye *  yim    |  Çi çek ler  der *  le *  ye *  yim    | 
a2 g2f2 e3d cded d4  | 
w:  Bir  de met  ey *  le *  ye *  yim    | 
_b2b2 b=aag2ffe eda4 | _b2 =a2g2 a2gf feed d4  | 
w:  De me ti  *  ney *  *  le *  ye *  yim    |  Sen  gü lüm_ ol *  *  ma *  yın *  ca    | 
f2g2 a2g3ffe edc4 | e2 d2c2 _7/8d2cB BAAG G4  | 
w:  De me ti  ney *  le *  ye *  yim    |  Sen  gü lüm_ ol *  *  ma *  yın *  ca    | 
f2g2 a2g3ffe edc4 | e2 d2c2 _7/8d2cB BAAG G4  | 
w:  De me ti  ney *  le *  ye *  yim    |  Sen  gü lüm_ ol *  *  ma *  yın *  ca    | 
|


